www/assets/icons/watch_off.svg

<svg width="24" height="24" viewBox="0 0 24 24" xmlns="http://www.w3.org/2000/svg" fill='currentColor'><path d="M12.71 6.69482C15.47 6.69482 17.71 8.93482 17.71 11.6948C17.71 12.3348 17.58 12.9448 17.36 13.5148L18.86 15.0148C19.4 14.0248 19.71 12.8948 19.71 11.6948C19.71 9.47482 18.68 7.50482 17.07 6.22482L15.71 1.69482H9.70998L8.74998 4.90482L10.89 7.04482C11.46 6.82482 12.07 6.69482 12.71 6.69482Z"/><path d="M3.51998 2.50482L2.09998 3.91482L6.55998 8.37482C6.01998 9.36482 5.70998 10.4948 5.70998 11.6948C5.70998 13.9148 6.73998 15.8848 8.34998 17.1648L9.70998 21.6948H15.71L16.67 18.4848L20.49 22.3048L21.9 20.8948L3.51998 2.50482ZM12.71 16.6948C9.94998 16.6948 7.70998 14.4548 7.70998 11.6948C7.70998 11.0548 7.83998 10.4448 8.05998 9.87482L14.53 16.3448C13.96 16.5648 13.35 16.6948 12.71 16.6948Z"/></svg>

<svg xmlns="http://www.w3.org/2000/svg" width="24" height="24" viewBox="0 0 24 24" fill='currentColor'><path d="M12.71 6.695c2.76 0 5 2.24 5 5 0 .64-.13 1.25-.35 1.82l1.5 1.5a6.96 6.96 0 0 0-1.79-8.79l-1.36-4.53h-6l-.96 3.21 2.14 2.14c.57-.22 1.18-.35 1.82-.35m-9.19-4.19L2.1 3.915l4.46 4.46a6.96 6.96 0 0 0 1.79 8.79l1.36 4.53h6l.96-3.21 3.82 3.82 1.41-1.41zm9.19 14.19c-2.76 0-5-2.24-5-5 0-.64.13-1.25.35-1.82l6.47 6.47c-.57.22-1.18.35-1.82.35"/></svg>
